;FLAVOR:Marlin
;TIME:6666
;Filament used: 0m
;Layer height: 0.1

;Generated with Cura_SteamEngine 2.7.0
M104 S215
M109 S215
G28 ;Home
G1 Z15.0 F6000 ;Move the platform down 15mm
;Prime the extruder
G92 E0
G1 F200 E3
G92 E0
;LAYER_COUNT:198
;LAYER:0
M107
G0 F3600 X44.623 Y44.349 Z0.3
;TYPE:SKIRT
G1 F1800 X45.222 Y43.834 E0.01427
G1 X45.87 Y43.383 E0.02852
G1 X46.561 Y42.999 E0.0428
G1 X47.286 Y42.687 E0.05705
G1 X48.039 Y42.45 E0.07131
G1 X48.813 Y42.291 E0.08557
G1 X49.598 Y42.21 E0.09983
G1 X50 Y42.2 E0.10709
G1 X70 Y42.2 E0.46825
G1 X70.789 Y42.24 E0.48252
G1 X71.569 Y42.359 E0.49676
G1 X72.334 Y42.557 E0.51103
G1 X73.074 Y42.831 E0.52528
G1 X73.783 Y43.179 E0.53955
G1 X74.454 Y43.597 E0.55382
G1 X75.078 Y44.08 E0.56807
G1 X75.651 Y44.623 E0.58233
G1 X76.166 Y45.222 E0.59659
G1 X76.617 Y45.87 E0.61085
G1 X77.001 Y46.561 E0.62512
G1 X77.313 Y47.286 E0.63938
G1 X77.55 Y48.039 E0.65363
G1 X77.709 Y48.813 E0.6679
G1 X77.79 Y49.598 E0.68215
G1 X77.8 Y50 E0.68941
G1 X77.8 Y70 E1.05058
G1 X77.76 Y70.789 E1.06484
G1 X77.641 Y71.569 E1.07909
G1 X77.443 Y72.334 E1.09336
G1 X77.169 Y73.074 E1.10761
G1 X76.821 Y73.783 E1.12187
G1 X76.403 Y74.454 E1.13615
G1 X75.92 Y75.078 E1.1504
G1 X75.377 Y75.651 E1.16465
G1 X74.778 Y76.166 E1.17892
G1 X74.13 Y76.617 E1.19318
G1 X73.439 Y77.001 E1.20745
G1 X72.714 Y77.313 E1.2217
G1 X71.961 Y77.55 E1.23596
G1 X71.187 Y77.709 E1.25023
G1 X70.402 Y77.79 E1.26448
G1 X70 Y77.8 E1.27174
G1 X50 Y77.8 E1.6329
G1 X49.211 Y77.76 E1.64717
G1 X48.431 Y77.641 E1.66142
G1 X47.666 Y77.443 E1.67569
G1 X46.926 Y77.169 E1.68994
G1 X46.217 Y76.821 E1.7042
G1 X45.546 Y76.403 E1.71848
G1 X44.922 Y75.92 E1.73272
G1 X44.349 Y75.377 E1.74698
G1 X43.834 Y74.778 E1.76125
G1 X43.383 Y74.13 E1.7755
G1 X42.999 Y73.439 E1.78978
G1 X42.687 Y72.714 E1.80403
G1 X42.45 Y71.961 E1.81829
G1 X42.291 Y71.187 E1.83255
G1 X42.21 Y70.402 E1.84681
G1 X42.2 Y70 E1.85407
G1 X42.2 Y50 E2.21523
G1 X42.24 Y49.211 E2.2295
G1 X42.359 Y48.431 E2.24374
G1 X42.557 Y47.666 E2.25801
G1 X42.831 Y46.926 E2.27226
G1 X43.179 Y46.217 E2.28653
G1 X43.597 Y45.546 E2.3008
G1 X44.08 Y44.922 E2.31505
G1 X44.623 Y44.349 E2.32931
G0 F3600 X45.016 Y44.53
G1 F1800 X45.611 Y44.042 E2.3432
G1 X46.253 Y43.619 E2.35709
G1 X46.936 Y43.264 E2.37099
G1 X47.651 Y42.983 E2.38486
G1 X48.393 Y42.777 E2.39877
G1 X49.151 Y42.649 E2.41265
G1 X50 Y42.6 E2.428
G1 X70 Y42.6 E2.78917
G1 X70.768 Y42.64 E2.80305
G1 X71.528 Y42.759 E2.81695
G1 X72.271 Y42.957 E2.83083
G1 X72.99 Y43.231 E2.84473
G1 X73.676 Y43.578 E2.85861
G1 X74.323 Y43.994 E2.8725
G1 X74.923 Y44.475 E2.88639
G1 X75.47 Y45.016 E2.90028
G1 X75.958 Y45.611 E2.91417
G1 X76.381 Y46.253 E2.92806
G1 X76.736 Y46.936 E2.94196
G1 X77.017 Y47.651 E2.95583
G1 X77.223 Y48.393 E2.96974
G1 X77.351 Y49.151 E2.98362
G1 X77.4 Y50 E2.99898
G1 X77.4 Y70 E3.36014
G1 X77.36 Y70.768 E3.37403
G1 X77.241 Y71.528 E3.38792
G1 X77.043 Y72.271 E3.4018
G1 X76.769 Y72.99 E3.4157
G1 X76.422 Y73.676 E3.42958
G1 X76.006 Y74.323 E3.44347
G1 X75.525 Y74.923 E3.45736
G1 X74.984 Y75.47 E3.47125
G1 X74.389 Y75.958 E3.48515
G1 X73.747 Y76.381 E3.49903
G1 X73.064 Y76.736 E3.51293
G1 X72.349 Y77.017 E3.5268
G1 X71.607 Y77.223 E3.54071
G1 X70.849 Y77.351 E3.55459
G1 X70 Y77.4 E3.56995
G1 X50 Y77.4 E3.93111
G1 X49.232 Y77.36 E3.945
G1 X48.472 Y77.241 E3.95889
G1 X47.729 Y77.043 E3.97277
G1 X47.01 Y76.769 E3.98667
G1 X46.324 Y76.422 E4.00055
G1 X45.677 Y76.006 E4.01444
G1 X45.077 Y75.525 E4.02833
G1 X44.53 Y74.984 E4.04222
G1 X44.042 Y74.389 E4.05612
G1 X43.619 Y73.747 E4.07
G1 X43.264 Y73.064 E4.0839
G1 X42.983 Y72.349 E4.09777
G1 X42.777 Y71.607 E4.11168
G1 X42.649 Y70.849 E4.12556
G1 X42.6 Y70 E4.14092
G1 X42.6 Y50 E4.50208
G1 X42.64 Y49.232 E4.51597
G1 X42.759 Y48.472 E4.52986
G1 X42.957 Y47.729 E4.54375
G1 X43.231 Y47.01 E4.55764
G1 X43.578 Y46.324 E4.57152
G1 X43.994 Y45.677 E4.58541
G1 X44.475 Y45.077 E4.5993
G1 X45.016 Y44.53 E4.61319
G0 F3600 X45.408 Y44.716
G1 F1800 X45.998 Y44.257 E4.62669
G1 X46.634 Y43.862 E4.64021
G1 X47.308 Y43.538 E4.65372
G1 X48.013 Y43.288 E4.66722
G1 X48.741 Y43.114 E4.68074
G1 X49.483 Y43.019 E4.69425
G1 X50 Y43 E4.70359
G1 X70 Y43 E5.06475
G1 X70.747 Y43.04 E5.07826
G1 X71.485 Y43.159 E5.09176
G1 X72.207 Y43.357 E5.10528
G1 X72.903 Y43.63 E5.11878
G1 X73.566 Y43.977 E5.1323
G1 X74.189 Y44.392 E5.14581
G1 X74.763 Y44.871 E5.15931
G1 X75.284 Y45.408 E5.17282
G1 X75.743 Y45.998 E5.18632
G1 X76.138 Y46.634 E5.19984
G1 X76.462 Y47.308 E5.21335
G1 X76.712 Y48.013 E5.22686
G1 X76.886 Y48.741 E5.24037
G1 X76.981 Y49.483 E5.25388
G1 X77 Y50 E5.26322
G1 X77 Y70 E5.62439
G1 X76.96 Y70.747 E5.63789
G1 X76.841 Y71.485 E5.65139
G1 X76.643 Y72.207 E5.66491
G1 X76.37 Y72.903 E5.67841
G1 X76.023 Y73.566 E5.69193
G1 X75.608 Y74.189 E5.70544
G1 X75.129 Y74.763 E5.71894
G1 X74.592 Y75.284 E5.73246
G1 X74.002 Y75.743 E5.74595
G1 X73.366 Y76.138 E5.75947
G1 X72.692 Y76.462 E5.77298
G1 X71.987 Y76.712 E5.78649
G1 X71.259 Y76.886 E5.8
G1 X70.517 Y76.981 E5.81351
G1 X70 Y77 E5.82285
G1 X50 Y77 E6.18402
G1 X49.253 Y76.96 E6.19753
G1 X48.515 Y76.841 E6.21102
G1 X47.793 Y76.643 E6.22454
G1 X47.097 Y76.37 E6.23804
G1 X46.434 Y76.023 E6.25156
G1 X45.811 Y75.608 E6.26508
G1 X45.237 Y75.129 E6.27858
G1 X44.716 Y74.592 E6.29209
G1 X44.257 Y74.002 E6.30559
G1 X43.862 Y73.366 E6.31911
G1 X43.538 Y72.692 E6.33261
G1 X43.288 Y71.987 E6.34612
G1 X43.114 Y71.259 E6.35963
G1 X43.019 Y70.517 E6.37314
G1 X43 Y70 E6.38249
G1 X43 Y50 E6.74365
G1 X43.04 Y49.253 E6.75716
G1 X43.159 Y48.515 E6.77066
G1 X43.357 Y47.793 E6.78417
G1 X43.63 Y47.097 E6.79768
G1 X43.977 Y46.434 E6.81119
G1 X44.392 Y45.811 E6.82471
G1 X44.871 Y45.237 E6.83821
G1 X45.408 Y44.716 E6.85172
G0 F3600 X45.799 Y44.909
G1 F1800 X46.384 Y44.479 E6.86483
G1 X47.013 Y44.115 E6.87795
G1 X47.678 Y43.822 E6.89107
G1 X48.371 Y43.604 E6.90419
G1 X49.083 Y43.464 E6.9173
G1 X50 Y43.4 E6.9339
G1 X70 Y43.4 E7.29506
G1 X70.725 Y43.44 E7.30817
G1 X71.442 Y43.559 E7.3213
G1 X72.141 Y43.757 E7.33442
G1 X72.814 Y44.03 E7.34753
G1 X73.453 Y44.375 E7.36064
G1 X74.05 Y44.789 E7.37376
G1 X74.598 Y45.265 E7.38687
G1 X75.091 Y45.799 E7.4
G1 X75.521 Y46.384 E7.41311
G1 X75.885 Y47.013 E7.42623
G1 X76.178 Y47.678 E7.43935
G1 X76.396 Y48.371 E7.45247
G1 X76.536 Y49.083 E7.46557
G1 X76.6 Y50 E7.48217
G1 X76.6 Y70 E7.84334
G1 X76.56 Y70.725 E7.85645
G1 X76.441 Y71.442 E7.86957
G1 X76.243 Y72.141 E7.88269
G1 X75.97 Y72.814 E7.89581
G1 X75.625 Y73.453 E7.90892
G1 X75.211 Y74.05 E7.92204
G1 X74.735 Y74.598 E7.93515
G1 X74.201 Y75.091 E7.94827
G1 X73.616 Y75.521 E7.96138
G1 X72.987 Y75.885 E7.97451
G1 X72.322 Y76.178 E7.98763
G1 X71.629 Y76.396 E8.00075
G1 X70.917 Y76.536 E8.01385
G1 X70 Y76.6 E8.03045
G1 X50 Y76.6 E8.39161
G1 X49.275 Y76.56 E8.40473
G1 X48.558 Y76.441 E8.41785
G1 X47.859 Y76.243 E8.43097
G1 X47.186 Y75.97 E8.44409
G1 X46.547 Y75.625 E8.4572
G1 X45.95 Y75.211 E8.47032
G1 X45.402 Y74.735 E8.48343
G1 X44.909 Y74.201 E8.49655
G1 X44.479 Y73.616 E8.50966
G1 X44.115 Y72.987 E8.52278
G1 X43.822 Y72.322 E8.53591
G1 X43.604 Y71.629 E8.54903
G1 X43.464 Y70.917 E8.56213
G1 X43.4 Y70 E8.57873
G1 X43.4 Y50 E8.93989
G1 X43.44 Y49.275 E8.953
G1 X43.559 Y48.558 E8.96613
G1 X43.757 Y47.859 E8.97925
G1 X44.03 Y47.186 E8.99236
G1 X44.375 Y46.547 E9.00548
G1 X44.789 Y45.95 E9.0186
G1 X45.265 Y45.402 E9.0317
G1 X45.799 Y44.909 E9.04483
G0 F3600 X46.189 Y45.109
G1 F1800 X46.768 Y44.709 E9.05754
G1 X47.389 Y44.377 E9.07025
G1 X48.043 Y44.117 E9.08296
G1 X48.723 Y43.933 E9.09568
G1 X49.419 Y43.827 E9.1084
G1 X50 Y43.8 E9.1189
G1 X70 Y43.8 E9.48006
G1 X70.703 Y43.84 E9.49278
G1 X71.397 Y43.959 E9.50549
G1 X72.072 Y44.157 E9.5182
G1 X72.721 Y44.429 E9.5309
G1 X73.335 Y44.774 E9.54362
G1 X73.906 Y45.185 E9.55633
G1 X74.427 Y45.659 E9.56904
G1 X74.891 Y46.189 E9.58176
G1 X75.291 Y46.768 E9.59447
G1 X75.623 Y47.389 E9.60719
G1 X75.883 Y48.043 E9.6199
G1 X76.067 Y48.723 E9.63262
G1 X76.173 Y49.419 E9.64533
G1 X76.2 Y50 E9.65584
G1 X76.2 Y70 E10.017
G1 X76.16 Y70.703 E10.02971
G1 X76.041 Y71.397 E10.04243
G1 X75.843 Y72.072 E10.05513
G1 X75.571 Y72.721 E10.06784
G1 X75.226 Y73.335 E10.08056
G1 X74.815 Y73.906 E10.09326
G1 X74.341 Y74.427 E10.10598
G1 X73.811 Y74.891 E10.1187
G1 X73.232 Y75.291 E10.13141
G1 X72.611 Y75.623 E10.14413
G1 X71.957 Y75.883 E10.15684
G1 X71.277 Y76.067 E10.16956
G1 X70.581 Y76.173 E10.18227
G1 X70 Y76.2 E10.19277
G1 X50 Y76.2 E10.55394
G1 X49.297 Y76.16 E10.56665
G1 X48.603 Y76.041 E10.57937
G1 X47.928 Y75.843 E10.59207
G1 X47.279 Y75.571 E10.60478
G1 X46.665 Y75.226 E10.61749
G1 X46.094 Y74.815 E10.6302
G1 X45.573 Y74.341 E10.64292
G1 X45.109 Y73.811 E10.65564
G1 X44.709 Y73.232 E10.66835
G1 X44.377 Y72.611 E10.68106
G1 X44.117 Y71.957 E10.69377
G1 X43.933 Y71.277 E10.70649
G1 X43.827 Y70.581 E10.71921
G1 X43.8 Y70 E10.72971
G1 X43.8 Y50 E11.09087
G1 X43.84 Y49.297 E11.10359
G1 X43.959 Y48.603 E11.1163
G1 X44.157 Y47.928 E11.12901
G1 X44.429 Y47.279 E11.14171
G1 X44.774 Y46.665 E11.15443
G1 X45.185 Y46.094 E11.16714
G1 X45.659 Y45.573 E11.17986
G1 X46.189 Y45.109 E11.19258
G0 F3600 X46.578 Y45.317
G1 F1800 X47.15 Y44.948 E11.20487
G1 X47.762 Y44.649 E11.21717
G1 X48.404 Y44.424 E11.22945
G1 X49.069 Y44.275 E11.24176
G1 X50 Y44.2 E11.25863
G1 X70 Y44.2 E11.61979
G1 X70.68 Y44.24 E11.63209
G1 X71.35 Y44.359 E11.64438
G1 X72.002 Y44.556 E11.65668
G1 X72.626 Y44.828 E11.66897
G1 X73.214 Y45.172 E11.68127
G1 X73.758 Y45.582 E11.69357
G1 X74.249 Y46.053 E11.70586
G1 X74.683 Y46.578 E11.71816
G1 X75.052 Y47.15 E11.73045
G1 X75.351 Y47.762 E11.74275
G1 X75.576 Y48.404 E11.75504
G1 X75.725 Y49.069 E11.76734
G1 X75.8 Y50 E11.78421
G1 X75.8 Y70 E12.14537
G1 X75.76 Y70.68 E12.15767
G1 X75.641 Y71.35 E12.16996
G1 X75.444 Y72.002 E12.18226
G1 X75.172 Y72.626 E12.19455
G1 X74.828 Y73.214 E12.20685
G1 X74.418 Y73.758 E12.21916
G1 X73.947 Y74.249 E12.23144
G1 X73.422 Y74.683 E12.24374
G1 X72.85 Y75.052 E12.25603
G1 X72.238 Y75.351 E12.26833
G1 X71.596 Y75.576 E12.28062
G1 X70.931 Y75.725 E12.29293
G1 X70 Y75.8 E12.30979
G1 X50 Y75.8 E12.67095
G1 X49.32 Y75.76 E12.68326
G1 X48.65 Y75.641 E12.69554
G1 X47.998 Y75.444 E12.70784
G1 X47.374 Y75.172 E12.72014
G1 X46.786 Y74.828 E12.73244
G1 X46.242 Y74.418 E12.74474
G1 X45.751 Y73.947 E12.75703
G1 X45.317 Y73.422 E12.76933
G1 X44.948 Y72.85 E12.78162
G1 X44.649 Y72.238 E12.79392
G1 X44.424 Y71.596 E12.8062
G1 X44.275 Y70.931 E12.81851
G1 X44.2 Y70 E12.83538
G1 X44.2 Y50 E13.19654
G1 X44.24 Y49.32 E13.20884
G1 X44.359 Y48.65 E13.22113
G1 X44.556 Y47.998 E13.23343
G1 X44.828 Y47.374 E13.24572
G1 X45.172 Y46.786 E13.25802
G1 X45.582 Y46.242 E13.27032
G1 X46.053 Y45.751 E13.28261
G1 X46.578 Y45.317 E13.29491
G0 F3600 X46.965 Y45.534
G1 F1800 X47.529 Y45.198 E13.30676
G1 X48.131 Y44.934 E13.31863
G1 X48.76 Y44.744 E13.3305
G1 X49.407 Y44.633 E13.34235
G1 X50 Y44.6 E13.35308
G1 X70 Y44.6 E13.71424
G1 X70.656 Y44.64 E13.72611
G1 X71.302 Y44.759 E13.73797
G1 X71.929 Y44.956 E13.74984
G1 X72.527 Y45.228 E13.7617
G1 X73.088 Y45.57 E13.77357
G1 X73.603 Y45.978 E13.78543
G1 X74.065 Y46.445 E13.7973
G1 X74.466 Y46.965 E13.80915
G1 X74.802 Y47.529 E13.82101
G1 X75.066 Y48.131 E13.83288
G1 X75.256 Y48.76 E13.84474
G1 X75.367 Y49.407 E13.8566
G1 X75.4 Y50 E13.86732
G1 X75.4 Y70 E14.22849
G1 X75.36 Y70.656 E14.24036
G1 X75.241 Y71.302 E14.25222
G1 X75.044 Y71.929 E14.26408
G1 X74.772 Y72.527 E14.27595
G1 X74.43 Y73.088 E14.28781
G1 X74.022 Y73.603 E14.29968
G1 X73.555 Y74.065 E14.31154
G1 X73.035 Y74.466 E14.3234
G1 X72.471 Y74.802 E14.33525
G1 X71.869 Y75.066 E14.34712
G1 X71.24 Y75.256 E14.35899
G1 X70.593 Y75.367 E14.37084
G1 X70 Y75.4 E14.38157
G1 X50 Y75.4 E14.74273
G1 X49.344 Y75.36 E14.7546
G1 X48.698 Y75.241 E14.76646
G1 X48.071 Y75.044 E14.77833
G1 X47.473 Y74.772 E14.79019
G1 X46.912 Y74.43 E14.80206
G1 X46.397 Y74.022 E14.81392
G1 X45.935 Y73.555 E14.82578
G1 X45.534 Y73.035 E14.83764
G1 X45.198 Y72.471 E14.8495
G1 X44.934 Y71.869 E14.86137
G1 X44.744 Y71.24 E14.87323
G1 X44.633 Y70.593 E14.88509
G1 X44.6 Y70 E14.89581
G1 X44.6 Y50 E15.25698
G1 X44.64 Y49.344 E15.26884
G1 X44.759 Y48.698 E15.28071
G1 X44.956 Y48.071 E15.29257
G1 X45.228 Y47.473 E15.30444
G1 X45.57 Y46.912 E15.3163
G1 X45.978 Y46.397 E15.32817
G1 X46.445 Y45.935 E15.34003
G1 X46.965 Y45.534 E15.35189
G0 F3600 X47.35 Y45.76
G1 F1800 X47.906 Y45.46 E15.3633
G1 X48.495 Y45.232 E15.3747
G1 X49.109 Y45.08 E15.38612
G1 X50 Y45 E15.40228
G1 X70 Y45 E15.76344
G1 X70.631 Y45.04 E15.77486
G1 X71.252 Y45.159 E15.78628
G1 X71.852 Y45.356 E15.79768
G1 X72.424 Y45.627 E15.80911
G1 X72.956 Y45.967 E15.82051
G1 X73.441 Y46.373 E15.83193
G1 X73.871 Y46.836 E15.84334
G1 X74.24 Y47.35 E15.85477
G1 X74.54 Y47.906 E15.86618
G1 X74.768 Y48.495 E15.87758
G1 X74.92 Y49.109 E15.88901
G1 X75 Y50 E15.90516
G1 X75 Y70 E16.26632
G1 X74.96 Y70.631 E16.27774
G1 X74.841 Y71.252 E16.28916
G1 X74.644 Y71.852 E16.30056
G1 X74.373 Y72.424 E16.31199
G1 X74.033 Y72.956 E16.32339
G1 X73.627 Y73.441 E16.33482
G1 X73.164 Y73.871 E16.34623
G1 X72.65 Y74.24 E16.35765
G1 X72.094 Y74.54 E16.36906
G1 X71.505 Y74.768 E16.38047
G1 X70.891 Y74.92 E16.39189
G1 X70 Y75 E16.40804
G1 X50 Y75 E16.76921
G1 X49.369 Y74.96 E16.78062
G1 X48.748 Y74.841 E16.79204
G1 X48.148 Y74.644 E16.80345
G1 X47.576 Y74.373 E16.81488
G1 X47.044 Y74.033 E16.82628
G1 X46.559 Y73.627 E16.8377
G1 X46.129 Y73.164 E16.84911
G1 X45.76 Y72.65 E16.86054
G1 X45.46 Y72.094 E16.87194
G1 X45.232 Y71.505 E16.88335
G1 X45.08 Y70.891 E16.89477
G1 X45 Y70 E16.91093
G1 X45 Y50 E17.27209
G1 X45.04 Y49.369 E17.28351
G1 X45.159 Y48.748 E17.29493
G1 X45.356 Y48.148 E17.30633
G1 X45.627 Y47.576 E17.31776
G1 X45.967 Y47.044 E17.32916
G1 X46.373 Y46.559 E17.34058
G1 X46.836 Y46.129 E17.35199
G1 X47.35 Y45.76 E17.36342
G0 F3600 X47.732 Y45.998
G1 F1800 X48.278 Y45.734 E17.37437
G1 X48.854 Y45.545 E17.38532
G1 X49.45 Y45.433 E17.39627
G1 X50 Y45.4 E17.40622
G1 X70 Y45.4 E17.76738
G1 X70.605 Y45.44 E17.77833
G1 X71.199 Y45.559 E17.78927
G1 X71.773 Y45.755 E17.80022
G1 X72.316 Y46.026 E17.81118
G1 X72.819 Y46.365 E17.82214
G1 X73.272 Y46.767 E17.83307
G1 X73.669 Y47.225 E17.84402
G1 X74.002 Y47.732 E17.85497
G1 X74.266 Y48.278 E17.86592
G1 X74.455 Y48.854 E17.87687
G1 X74.567 Y49.45 E17.88782
G1 X74.6 Y50 E17.89777
G1 X74.6 Y70 E18.25893
G1 X74.56 Y70.605 E18.26988
G1 X74.441 Y71.199 E18.28082
G1 X74.245 Y71.773 E18.29178
G1 X73.974 Y72.316 E18.30273
G1 X73.635 Y72.819 E18.31369
G1 X73.233 Y73.272 E18.32463
G1 X72.775 Y73.669 E18.33557
G1 X72.268 Y74.002 E18.34652
G1 X71.722 Y74.266 E18.35748
G1 X71.146 Y74.455 E18.36842
G1 X70.55 Y74.567 E18.37937
G1 X70 Y74.6 E18.38932
G1 X50 Y74.6 E18.75049
G1 X49.395 Y74.56 E18.76144
G1 X48.801 Y74.441 E18.77238
G1 X48.227 Y74.245 E18.78333
G1 X47.684 Y73.974 E18.79429
G1 X47.181 Y73.635 E18.80524
G1 X46.728 Y73.233 E18.81618
G1 X46.331 Y72.775 E18.82712
G1 X45.998 Y72.268 E18.83808
G1 X45.734 Y71.722 E18.84903
G1 X45.545 Y71.146 E18.85998
G1 X45.433 Y70.55 E18.87093
G1 X45.4 Y70 E18.88088
G1 X45.4 Y50 E19.24204
G1 X45.44 Y49.395 E19.25299
G1 X45.559 Y48.801 E19.26393
G1 X45.755 Y48.227 E19.27488
G1 X46.026 Y47.684 E19.28584
G1 X46.365 Y47.181 E19.29679
G1 X46.767 Y46.728 E19.30773
G1 X47.225 Y46.331 E19.31868
G1 X47.732 Y45.998 E19.32963
G0 F3600 X48.111 Y46.249
G1 F1800 X48.645 Y46.024 E19.34009
G1 X49.205 Y45.876 E19.35055
G1 X50 Y45.8 E19.36497
G1 X70 Y45.8 E19.72614
G1 X70.578 Y45.84 E19.7366
G1 X71.145 Y45.959 E19.74706
G1 X71.69 Y46.155 E19.75752
G1 X72.203 Y46.424 E19.76798
G1 X72.674 Y46.761 E19.77844
G1 X73.094 Y47.16 E19.7889
G1 X73.456 Y47.613 E19.79937
G1 X73.751 Y48.111 E19.80982
G1 X73.976 Y48.645 E19.82029
G1 X74.124 Y49.205 E19.83075
G1 X74.2 Y50 E19.84517
G1 X74.2 Y70 E20.20633
G1 X74.16 Y70.578 E20.21679
G1 X74.041 Y71.145 E20.22726
G1 X73.845 Y71.69 E20.23772
G1 X73.576 Y72.203 E20.24818
G1 X73.239 Y72.674 E20.25863
G1 X72.84 Y73.094 E20.2691
G1 X72.387 Y73.456 E20.27957
G1 X71.889 Y73.751 E20.29002
G1 X71.355 Y73.976 E20.30048
G1 X70.795 Y74.124 E20.31094
G1 X70 Y74.2 E20.32536
G1 X50 Y74.2 E20.68653
G1 X49.422 Y74.16 E20.69699
G1 X48.855 Y74.041 E20.70745
G1 X48.31 Y73.845 E20.71791
G1 X47.797 Y73.576 E20.72837
