;FLAVOR:Marlin
;TIME:6666
;Filament used: 0m
;Layer height: 0.1

;Generated with Cura_SteamEngine 2.7.0
M104 S215
M109 S215
G28 ;Home
G1 Z15.0 F6000 ;Move the platform down 15mm
;Prime the extruder
G92 E0
G1 F200 E3
G92 E0
;LAYER_COUNT:198
;LAYER:0
M107
G0 F3600 X44.623 Y44.349 Z0.3
;TYPE:SKIRT
G1 F1800 X45.222 Y43.834 E0.01412
G1 X45.87 Y43.383 E0.02822
G1 X46.561 Y42.999 E0.04235
G1 X47.286 Y42.687 E0.05646
G1 X48.039 Y42.45 E0.07056
G1 X48.813 Y42.291 E0.08468
G1 X49.598 Y42.21 E0.09879
G1 X50 Y42.2 E0.10597
G1 X70 Y42.2 E0.46337
G1 X70.789 Y42.24 E0.47749
G1 X71.569 Y42.359 E0.49159
G1 X72.334 Y42.557 E0.50571
G1 X73.074 Y42.831 E0.51981
G1 X73.783 Y43.179 E0.53393
G1 X74.454 Y43.597 E0.54805
G1 X75.078 Y44.08 E0.56215
G1 X75.651 Y44.623 E0.57626
G1 X76.166 Y45.222 E0.59038
G1 X76.617 Y45.87 E0.60449
G1 X77.001 Y46.561 E0.61861
G1 X77.313 Y47.286 E0.63272
G1 X77.55 Y48.039 E0.64682
G1 X77.709 Y48.813 E0.66094
G1 X77.79 Y49.598 E0.67505
G1 X77.8 Y50 E0.68223
G1 X77.8 Y70 E1.03963
G1 X77.76 Y70.789 E1.05375
G1 X77.641 Y71.569 E1.06785
G1 X77.443 Y72.334 E1.08197
G1 X77.169 Y73.074 E1.09607
G1 X76.821 Y73.783 E1.11019
G1 X76.403 Y74.454 E1.12431
G1 X75.92 Y75.078 E1.13841
G1 X75.377 Y75.651 E1.15252
G1 X74.778 Y76.166 E1.16664
G1 X74.13 Y76.617 E1.18075
G1 X73.439 Y77.001 E1.19487
G1 X72.714 Y77.313 E1.20898
G1 X71.961 Y77.55 E1.22308
G1 X71.187 Y77.709 E1.2372
G1 X70.402 Y77.79 E1.25131
G1 X70 Y77.8 E1.25849
G1 X50 Y77.8 E1.61589
G1 X49.211 Y77.76 E1.63001
G1 X48.431 Y77.641 E1.64411
G1 X47.666 Y77.443 E1.65823
G1 X46.926 Y77.169 E1.67233
G1 X46.217 Y76.821 E1.68645
G1 X45.546 Y76.403 E1.70057
G1 X44.922 Y75.92 E1.71468
G1 X44.349 Y75.377 E1.72878
G1 X43.834 Y74.778 E1.7429
G1 X43.383 Y74.13 E1.75701
G1 X42.999 Y73.439 E1.77113
G1 X42.687 Y72.714 E1.78524
G1 X42.45 Y71.961 E1.79935
G1 X42.291 Y71.187 E1.81347
G1 X42.21 Y70.402 E1.82757
G1 X42.2 Y70 E1.83475
G1 X42.2 Y50 E2.19215
G1 X42.24 Y49.211 E2.20627
G1 X42.359 Y48.431 E2.22037
G1 X42.557 Y47.666 E2.23449
G1 X42.831 Y46.926 E2.24859
G1 X43.179 Y46.217 E2.26271
G1 X43.597 Y45.546 E2.27684
G1 X44.08 Y44.922 E2.29094
G1 X44.623 Y44.349 E2.30504
G0 F3600 X45.016 Y44.53
G1 F1800 X45.611 Y44.042 E2.31879
G1 X46.253 Y43.619 E2.33253
G1 X46.936 Y43.264 E2.34629
G1 X47.651 Y42.983 E2.36002
G1 X48.393 Y42.777 E2.37378
G1 X49.151 Y42.649 E2.38752
G1 X50 Y42.6 E2.40271
G1 X70 Y42.6 E2.76011
G1 X70.768 Y42.64 E2.77386
G1 X71.528 Y42.759 E2.7876
G1 X72.271 Y42.957 E2.80134
G1 X72.99 Y43.231 E2.81509
G1 X73.676 Y43.578 E2.82883
G1 X74.323 Y43.994 E2.84258
G1 X74.923 Y44.475 E2.85632
G1 X75.47 Y45.016 E2.87007
G1 X75.958 Y45.611 E2.88382
G1 X76.381 Y46.253 E2.89756
G1 X76.736 Y46.936 E2.91131
G1 X77.017 Y47.651 E2.92504
G1 X77.223 Y48.393 E2.9388
G1 X77.351 Y49.151 E2.95254
G1 X77.4 Y50 E2.96774
G1 X77.4 Y70 E3.32514
G1 X77.36 Y70.768 E3.33888
G1 X77.241 Y71.528 E3.35263
G1 X77.043 Y72.271 E3.36637
G1 X76.769 Y72.99 E3.38012
G1 X76.422 Y73.676 E3.39386
G1 X76.006 Y74.323 E3.4076
G1 X75.525 Y74.923 E3.42134
G1 X74.984 Y75.47 E3.43509
G1 X74.389 Y75.958 E3.44884
G1 X73.747 Y76.381 E3.46258
G1 X73.064 Y76.736 E3.47634
G1 X72.349 Y77.017 E3.49007
G1 X71.607 Y77.223 E3.50383
G1 X70.849 Y77.351 E3.51756
G1 X70 Y77.4 E3.53276
G1 X50 Y77.4 E3.89016
G1 X49.232 Y77.36 E3.9039
G1 X48.472 Y77.241 E3.91765
G1 X47.729 Y77.043 E3.93139
G1 X47.01 Y76.769 E3.94514
G1 X46.324 Y76.422 E3.95888
G1 X45.677 Y76.006 E3.97262
G1 X45.077 Y75.525 E3.98637
G1 X44.53 Y74.984 E4.00012
G1 X44.042 Y74.389 E4.01387
G1 X43.619 Y73.747 E4.02761
G1 X43.264 Y73.064 E4.04136
G1 X42.983 Y72.349 E4.05509
G1 X42.777 Y71.607 E4.06885
G1 X42.649 Y70.849 E4.08259
G1 X42.6 Y70 E4.09778
G1 X42.6 Y50 E4.45519
G1 X42.64 Y49.232 E4.46893
G1 X42.759 Y48.472 E4.48267
G1 X42.957 Y47.729 E4.49642
G1 X43.231 Y47.01 E4.51017
G1 X43.578 Y46.324 E4.5239
G1 X43.994 Y45.677 E4.53765
G1 X44.475 Y45.077 E4.55139
G1 X45.016 Y44.53 E4.56514
G0 F3600 X45.408 Y44.716
G1 F1800 X45.998 Y44.257 E4.5785
G1 X46.634 Y43.862 E4.59188
G1 X47.308 Y43.538 E4.60524
G1 X48.013 Y43.288 E4.61861
G1 X48.741 Y43.114 E4.63198
G1 X49.483 Y43.019 E4.64535
G1 X50 Y43 E4.6546
G1 X70 Y43 E5.012
G1 X70.747 Y43.04 E5.02536
G1 X71.485 Y43.159 E5.03872
G1 X72.207 Y43.357 E5.0521
G1 X72.903 Y43.63 E5.06546
G1 X73.566 Y43.977 E5.07883
G1 X74.189 Y44.392 E5.09221
G1 X74.763 Y44.871 E5.10557
G1 X75.284 Y45.408 E5.11894
G1 X75.743 Y45.998 E5.1323
G1 X76.138 Y46.634 E5.14568
G1 X76.462 Y47.308 E5.15904
G1 X76.712 Y48.013 E5.17241
G1 X76.886 Y48.741 E5.18578
G1 X76.981 Y49.483 E5.19915
G1 X77 Y50 E5.2084
G1 X77 Y70 E5.5658
G1 X76.96 Y70.747 E5.57917
G1 X76.841 Y71.485 E5.59252
G1 X76.643 Y72.207 E5.6059
G1 X76.37 Y72.903 E5.61926
G1 X76.023 Y73.566 E5.63264
G1 X75.608 Y74.189 E5.64601
G1 X75.129 Y74.763 E5.65937
G1 X74.592 Y75.284 E5.67274
G1 X74.002 Y75.743 E5.6861
G1 X73.366 Y76.138 E5.69948
G1 X72.692 Y76.462 E5.71284
G1 X71.987 Y76.712 E5.72621
G1 X71.259 Y76.886 E5.73959
G1 X70.517 Y76.981 E5.75295
G1 X70 Y77 E5.7622
G1 X50 Y77 E6.1196
G1 X49.253 Y76.96 E6.13297
G1 X48.515 Y76.841 E6.14633
G1 X47.793 Y76.643 E6.1597
G1 X47.097 Y76.37 E6.17306
G1 X46.434 Y76.023 E6.18644
G1 X45.811 Y75.608 E6.19981
G1 X45.237 Y75.129 E6.21317
G1 X44.716 Y74.592 E6.22654
G1 X44.257 Y74.002 E6.2399
G1 X43.862 Y73.366 E6.25328
G1 X43.538 Y72.692 E6.26665
G1 X43.288 Y71.987 E6.28001
G1 X43.114 Y71.259 E6.29339
G1 X43.019 Y70.517 E6.30676
G1 X43 Y70 E6.316
G1 X43 Y50 E6.6734
G1 X43.04 Y49.253 E6.68677
G1 X43.159 Y48.515 E6.70013
G1 X43.357 Y47.793 E6.71351
G1 X43.63 Y47.097 E6.72687
G1 X43.977 Y46.434 E6.74024
G1 X44.392 Y45.811 E6.75362
G1 X44.871 Y45.237 E6.76698
G1 X45.408 Y44.716 E6.78035
G0 F3600 X45.799 Y44.909
G1 F1800 X46.384 Y44.479 E6.79332
G1 X47.013 Y44.115 E6.80631
G1 X47.678 Y43.822 E6.81929
G1 X48.371 Y43.604 E6.83228
G1 X49.083 Y43.464 E6.84524
G1 X50 Y43.4 E6.86167
G1 X70 Y43.4 E7.21907
G1 X70.725 Y43.44 E7.23204
G1 X71.442 Y43.559 E7.24503
G1 X72.141 Y43.757 E7.25802
G1 X72.814 Y44.03 E7.27099
G1 X73.453 Y44.375 E7.28397
G1 X74.05 Y44.789 E7.29695
G1 X74.598 Y45.265 E7.30992
G1 X75.091 Y45.799 E7.32291
G1 X75.521 Y46.384 E7.33589
G1 X75.885 Y47.013 E7.34887
G1 X76.178 Y47.678 E7.36186
G1 X76.396 Y48.371 E7.37484
G1 X76.536 Y49.083 E7.38781
G1 X76.6 Y50 E7.40424
G1 X76.6 Y70 E7.76164
G1 X76.56 Y70.725 E7.77461
G1 X76.441 Y71.442 E7.7876
G1 X76.243 Y72.141 E7.80058
G1 X75.97 Y72.814 E7.81356
G1 X75.625 Y73.453 E7.82654
G1 X75.211 Y74.05 E7.83952
G1 X74.735 Y74.598 E7.85249
G1 X74.201 Y75.091 E7.86548
G1 X73.616 Y75.521 E7.87845
G1 X72.987 Y75.885 E7.89144
G1 X72.322 Y76.178 E7.90443
G1 X71.629 Y76.396 E7.91741
G1 X70.917 Y76.536 E7.93037
G1 X70 Y76.6 E7.9468
G1 X50 Y76.6 E8.3042
G1 X49.275 Y76.56 E8.31718
G1 X48.558 Y76.441 E8.33017
G1 X47.859 Y76.243 E8.34315
G1 X47.186 Y75.97 E8.35613
G1 X46.547 Y75.625 E8.3691
G1 X45.95 Y75.211 E8.38209
G1 X45.402 Y74.735 E8.39506
G1 X44.909 Y74.201 E8.40804
G1 X44.479 Y73.616 E8.42102
G1 X44.115 Y72.987 E8.43401
G1 X43.822 Y72.322 E8.44699
G1 X43.604 Y71.629 E8.45997
G1 X43.464 Y70.917 E8.47294
G1 X43.4 Y70 E8.48937
G1 X43.4 Y50 E8.84677
G1 X43.44 Y49.275 E8.85974
G1 X43.559 Y48.558 E8.87273
G1 X43.757 Y47.859 E8.88571
G1 X44.03 Y47.186 E8.89869
G1 X44.375 Y46.547 E8.91167
G1 X44.789 Y45.95 E8.92465
G1 X45.265 Y45.402 E8.93762
G1 X45.799 Y44.909 E8.95061
G0 F3600 X46.189 Y45.109
G1 F1800 X46.768 Y44.709 E8.96319
G1 X47.389 Y44.377 E8.97577
G1 X48.043 Y44.117 E8.98835
G1 X48.723 Y43.933 E9.00094
G1 X49.419 Y43.827 E9.01352
G1 X50 Y43.8 E9.02391
G1 X70 Y43.8 E9.38131
G1 X70.703 Y43.84 E9.39389
G1 X71.397 Y43.959 E9.40648
G1 X72.072 Y44.157 E9.41905
G1 X72.721 Y44.429 E9.43162
G1 X73.335 Y44.774 E9.44421
G1 X73.906 Y45.185 E9.45678
G1 X74.427 Y45.659 E9.46937
G1 X74.891 Y46.189 E9.48195
G1 X75.291 Y46.768 E9.49453
G1 X75.623 Y47.389 E9.50711
G1 X75.883 Y48.043 E9.51969
G1 X76.067 Y48.723 E9.53228
G1 X76.173 Y49.419 E9.54486
G1 X76.2 Y50 E9.55525
G1 X76.2 Y70 E9.91265
G1 X76.16 Y70.703 E9.92524
G1 X76.041 Y71.397 E9.93782
G1 X75.843 Y72.072 E9.95039
G1 X75.571 Y72.721 E9.96297
G1 X75.226 Y73.335 E9.97555
G1 X74.815 Y73.906 E9.98812
G1 X74.341 Y74.427 E10.00071
G1 X73.811 Y74.891 E10.0133
G1 X73.232 Y75.291 E10.02587
G1 X72.611 Y75.623 E10.03846
G1 X71.957 Y75.883 E10.05103
G1 X71.277 Y76.067 E10.06362
G1 X70.581 Y76.173 E10.0762
G1 X70 Y76.2 E10.0866
G1 X50 Y76.2 E10.444
G1 X49.297 Y76.16 E10.45658
G1 X48.603 Y76.041 E10.46916
G1 X47.928 Y75.843 E10.48173
G1 X47.279 Y75.571 E10.49431
G1 X46.665 Y75.226 E10.5069
G1 X46.094 Y74.815 E10.51947
G1 X45.573 Y74.341 E10.53205
G1 X45.109 Y73.811 E10.54464
G1 X44.709 Y73.232 E10.55722
G1 X44.377 Y72.611 E10.5698
G1 X44.117 Y71.957 E10.58238
G1 X43.933 Y71.277 E10.59497
G1 X43.827 Y70.581 E10.60755
G1 X43.8 Y70 E10.61794
G1 X43.8 Y50 E10.97534
G1 X43.84 Y49.297 E10.98793
G1 X43.959 Y48.603 E11.00051
G1 X44.157 Y47.928 E11.01308
G1 X44.429 Y47.279 E11.02565
G1 X44.774 Y46.665 E11.03824
G1 X45.185 Y46.094 E11.05081
G1 X45.659 Y45.573 E11.0634
G1 X46.189 Y45.109 E11.07599
G0 F3600 X46.578 Y45.317
G1 F1800 X47.15 Y44.948 E11.08815
G1 X47.762 Y44.649 E11.10032
G1 X48.404 Y44.424 E11.11248
G1 X49.069 Y44.275 E11.12466
G1 X50 Y44.2 E11.14135
G1 X70 Y44.2 E11.49875
G1 X70.68 Y44.24 E11.51092
G1 X71.35 Y44.359 E11.52308
G1 X72.002 Y44.556 E11.53525
G1 X72.626 Y44.828 E11.54742
G1 X73.214 Y45.172 E11.55959
G1 X73.758 Y45.582 E11.57176
G1 X74.249 Y46.053 E11.58392
G1 X74.683 Y46.578 E11.59609
G1 X75.052 Y47.15 E11.60826
G1 X75.351 Y47.762 E11.62043
G1 X75.576 Y48.404 E11.63259
G1 X75.725 Y49.069 E11.64477
G1 X75.8 Y50 E11.66146
G1 X75.8 Y70 E12.01886
G1 X75.76 Y70.68 E12.03103
G1 X75.641 Y71.35 E12.04319
G1 X75.444 Y72.002 E12.05536
G1 X75.172 Y72.626 E12.06753
G1 X74.828 Y73.214 E12.0797
G1 X74.418 Y73.758 E12.09187
G1 X73.947 Y74.249 E12.10403
G1 X73.422 Y74.683 E12.1162
G1 X72.85 Y75.052 E12.12837
G1 X72.238 Y75.351 E12.14054
G1 X71.596 Y75.576 E12.1527
G1 X70.931 Y75.725 E12.16487
G1 X70 Y75.8 E12.18157
G1 X50 Y75.8 E12.53897
G1 X49.32 Y75.76 E12.55114
G1 X48.65 Y75.641 E12.5633
G1 X47.998 Y75.444 E12.57547
G1 X47.374 Y75.172 E12.58763
G1 X46.786 Y74.828 E12.59981
G1 X46.242 Y74.418 E12.61198
G1 X45.751 Y73.947 E12.62414
G1 X45.317 Y73.422 E12.63631
G1 X44.948 Y72.85 E12.64848
G1 X44.649 Y72.238 E12.66065
G1 X44.424 Y71.596 E12.6728
G1 X44.275 Y70.931 E12.68498
G1 X44.2 Y70 E12.70167
G1 X44.2 Y50 E13.05907
G1 X44.24 Y49.32 E13.07125
G1 X44.359 Y48.65 E13.08341
G1 X44.556 Y47.998 E13.09558
G1 X44.828 Y47.374 E13.10774
G1 X45.172 Y46.786 E13.11992
G1 X45.582 Y46.242 E13.13209
G1 X46.053 Y45.751 E13.14425
G1 X46.578 Y45.317 E13.15642
G0 F3600 X46.965 Y45.534
G1 F1800 X47.529 Y45.198 E13.16815
G1 X48.131 Y44.934 E13.1799
G1 X48.76 Y44.744 E13.19164
G1 X49.407 Y44.633 E13.20337
G1 X50 Y44.6 E13.21398
G1 X70 Y44.6 E13.57139
G1 X70.656 Y44.64 E13.58313
G1 X71.302 Y44.759 E13.59487
G1 X71.929 Y44.956 E13.60661
G1 X72.527 Y45.228 E13.61835
G1 X73.088 Y45.57 E13.63009
G1 X73.603 Y45.978 E13.64183
G1 X74.065 Y46.445 E13.65357
G1 X74.466 Y46.965 E13.66531
G1 X74.802 Y47.529 E13.67704
G1 X75.066 Y48.131 E13.68879
G1 X75.256 Y48.76 E13.70053
G1 X75.367 Y49.407 E13.71226
G1 X75.4 Y50 E13.72287
G1 X75.4 Y70 E14.08027
G1 X75.36 Y70.656 E14.09202
G1 X75.241 Y71.302 E14.10376
G1 X75.044 Y71.929 E14.1155
G1 X74.772 Y72.527 E14.12724
G1 X74.43 Y73.088 E14.13898
G1 X74.022 Y73.603 E14.15072
G1 X73.555 Y74.065 E14.16246
G1 X73.035 Y74.466 E14.1742
G1 X72.471 Y74.802 E14.18593
G1 X71.869 Y75.066 E14.19767
G1 X71.24 Y75.256 E14.20942
G1 X70.593 Y75.367 E14.22115
G1 X70 Y75.4 E14.23176
G1 X50 Y75.4 E14.58916
G1 X49.344 Y75.36 E14.60091
G1 X48.698 Y75.241 E14.61264
G1 X48.071 Y75.044 E14.62439
G1 X47.473 Y74.772 E14.63613
G1 X46.912 Y74.43 E14.64787
G1 X46.397 Y74.022 E14.65961
G1 X45.935 Y73.555 E14.67135
G1 X45.534 Y73.035 E14.68308
G1 X45.198 Y72.471 E14.69482
G1 X44.934 Y71.869 E14.70656
G1 X44.744 Y71.24 E14.7183
G1 X44.633 Y70.593 E14.73004
G1 X44.6 Y70 E14.74065
G1 X44.6 Y50 E15.09805
G1 X44.64 Y49.344 E15.10979
G1 X44.759 Y48.698 E15.12153
G1 X44.956 Y48.071 E15.13328
G1 X45.228 Y47.473 E15.14502
G1 X45.57 Y46.912 E15.15676
G1 X45.978 Y46.397 E15.1685
G1 X46.445 Y45.935 E15.18024
G1 X46.965 Y45.534 E15.19197
G0 F3600 X47.35 Y45.76
G1 F1800 X47.906 Y45.46 E15.20326
G1 X48.495 Y45.232 E15.21455
G1 X49.109 Y45.08 E15.22585
G1 X50 Y45 E15.24184
G1 X70 Y45 E15.59924
G1 X70.631 Y45.04 E15.61054
G1 X71.252 Y45.159 E15.62184
G1 X71.852 Y45.356 E15.63312
G1 X72.424 Y45.627 E15.64443
G1 X72.956 Y45.967 E15.65572
G1 X73.441 Y46.373 E15.66702
G1 X73.871 Y46.836 E15.67831
G1 X74.24 Y47.35 E15.68962
G1 X74.54 Y47.906 E15.70091
G1 X74.768 Y48.495 E15.71219
G1 X74.92 Y49.109 E15.7235
G1 X75 Y50 E15.73948
G1 X75 Y70 E16.09688
G1 X74.96 Y70.631 E16.10818
G1 X74.841 Y71.252 E16.11948
G1 X74.644 Y71.852 E16.13077
G1 X74.373 Y72.424 E16.14208
G1 X74.033 Y72.956 E16.15336
G1 X73.627 Y73.441 E16.16466
G1 X73.164 Y73.871 E16.17595
G1 X72.65 Y74.24 E16.18726
G1 X72.094 Y74.54 E16.19855
G1 X71.505 Y74.768 E16.20984
G1 X70.891 Y74.92 E16.22114
G1 X70 Y75 E16.23713
G1 X50 Y75 E16.59453
G1 X49.369 Y74.96 E16.60583
G1 X48.748 Y74.841 E16.61713
G1 X48.148 Y74.644 E16.62841
G1 X47.576 Y74.373 E16.63972
G1 X47.044 Y74.033 E16.651
G1 X46.559 Y73.627 E16.66231
G1 X46.129 Y73.164 E16.6736
G1 X45.76 Y72.65 E16.68491
G1 X45.46 Y72.094 E16.6962
G1 X45.232 Y71.505 E16.70748
G1 X45.08 Y70.891 E16.71879
G1 X45 Y70 E16.73477
G1 X45 Y50 E17.09217
G1 X45.04 Y49.369 E17.10347
G1 X45.159 Y48.748 E17.11477
G1 X45.356 Y48.148 E17.12606
G1 X45.627 Y47.576 E17.13737
G1 X45.967 Y47.044 E17.14865
G1 X46.373 Y46.559 E17.15995
G1 X46.836 Y46.129 E17.17124
G1 X47.35 Y45.76 E17.18255
G0 F3600 X47.732 Y45.998
G1 F1800 X48.278 Y45.734 E17.19339
G1 X48.854 Y45.545 E17.20422
G1 X49.45 Y45.433 E17.21506
G1 X50 Y45.4 E17.2249
G1 X70 Y45.4 E17.5823
G1 X70.605 Y45.44 E17.59314
G1 X71.199 Y45.559 E17.60397
G1 X71.773 Y45.755 E17.6148
G1 X72.316 Y46.026 E17.62565
G1 X72.819 Y46.365 E17.63649
G1 X73.272 Y46.767 E17.64731
G1 X73.669 Y47.225 E17.65814
G1 X74.002 Y47.732 E17.66898
G1 X74.266 Y48.278 E17.67982
G1 X74.455 Y48.854 E17.69065
G1 X74.567 Y49.45 E17.70149
G1 X74.6 Y50 E17.71134
G1 X74.6 Y70 E18.06874
G1 X74.56 Y70.605 E18.07957
G1 X74.441 Y71.199 E18.0904
G1 X74.245 Y71.773 E18.10124
G1 X73.974 Y72.316 E18.11208
G1 X73.635 Y72.819 E18.12292
G1 X73.233 Y73.272 E18.13374
G1 X72.775 Y73.669 E18.14457
G1 X72.268 Y74.002 E18.15541
G1 X71.722 Y74.266 E18.16625
G1 X71.146 Y74.455 E18.17709
G1 X70.55 Y74.567 E18.18792
G1 X70 Y74.6 E18.19777
G1 X50 Y74.6 E18.55517
G1 X49.395 Y74.56 E18.566
G1 X48.801 Y74.441 E18.57683
G1 X48.227 Y74.245 E18.58767
G1 X47.684 Y73.974 E18.59851
G1 X47.181 Y73.635 E18.60935
G1 X46.728 Y73.233 E18.62018
G1 X46.331 Y72.775 E18.63101
G1 X45.998 Y72.268 E18.64185
G1 X45.734 Y71.722 E18.65268
G1 X45.545 Y71.146 E18.66352
G1 X45.433 Y70.55 E18.67435
G1 X45.4 Y70 E18.6842
G1 X45.4 Y50 E19.0416
G1 X45.44 Y49.395 E19.05244
G1 X45.559 Y48.801 E19.06326
G1 X45.755 Y48.227 E19.0741
G1 X46.026 Y47.684 E19.08495
G1 X46.365 Y47.181 E19.09578
G1 X46.767 Y46.728 E19.10661
G1 X47.225 Y46.331 E19.11744
G1 X47.732 Y45.998 E19.12828
G0 F3600 X48.111 Y46.249
G1 F1800 X48.645 Y46.024 E19.13863
G1 X49.205 Y45.876 E19.14898
G1 X50 Y45.8 E19.16326
G1 X70 Y45.8 E19.52066
G1 X70.578 Y45.84 E19.53101
G1 X71.145 Y45.959 E19.54136
G1 X71.69 Y46.155 E19.55171
G1 X72.203 Y46.424 E19.56206
G1 X72.674 Y46.761 E19.57241
G1 X73.094 Y47.16 E19.58277
G1 X73.456 Y47.613 E19.59313
G1 X73.751 Y48.111 E19.60347
G1 X73.976 Y48.645 E19.61383
G1 X74.124 Y49.205 E19.62418
G1 X74.2 Y50 E19.63845
G1 X74.2 Y70 E19.99585
G1 X74.16 Y70.578 E20.0062
G1 X74.041 Y71.145 E20.01656
G1 X73.845 Y71.69 E20.02691
G1 X73.576 Y72.203 E20.03726
G1 X73.239 Y72.674 E20.04761
G1 X72.84 Y73.094 E20.05796
G1 X72.387 Y73.456 E20.06832
G1 X71.889 Y73.751 E20.07866
G1 X71.355 Y73.976 E20.08902
G1 X70.795 Y74.124 E20.09937
G1 X70 Y74.2 E20.11364
G1 X50 Y74.2 E20.47104
G1 X49.422 Y74.16 E20.4814
G1 X48.855 Y74.041 E20.49175
G1 X48.31 Y73.845 E20.5021
G1 X47.797 Y73.576 E20.51245
G1 X47.326 Y73.239 E20.5228
