;FLAVOR:Marlin
;TIME:6666
;Filament used: 0m
;Layer height: 0.1

;Generated with Cura_SteamEngine 2.7.0
M104 S215
M109 S215
G28 ;Home
G1 Z15.0 F6000 ;Move the platform down 15mm
;Prime the extruder
G92 E0
G1 F200 E3
G92 E0
;LAYER_COUNT:198
;LAYER:0
M107
G0 F3600 X44.623 Y44.349 Z0.3
;TYPE:SKIRT
G1 F1800 X45.222 Y43.834 E0.011
G1 X45.87 Y43.383 E0.02199
G1 X46.561 Y42.999 E0.03299
G1 X47.286 Y42.687 E0.04398
G1 X48.039 Y42.45 E0.05496
G1 X48.813 Y42.291 E0.06596
G1 X49.598 Y42.21 E0.07695
G1 X50 Y42.2 E0.08255
G1 X70 Y42.2 E0.36094
G1 X70.789 Y42.24 E0.37194
G1 X71.569 Y42.359 E0.38292
G1 X72.334 Y42.557 E0.39392
G1 X73.074 Y42.831 E0.40491
G1 X73.783 Y43.179 E0.4159
G1 X74.454 Y43.597 E0.4269
G1 X75.078 Y44.08 E0.43789
G1 X75.651 Y44.623 E0.44888
G1 X76.166 Y45.222 E0.45987
G1 X76.617 Y45.87 E0.47086
G1 X77.001 Y46.561 E0.48187
G1 X77.313 Y47.286 E0.49285
G1 X77.55 Y48.039 E0.50384
G1 X77.709 Y48.813 E0.51484
G1 X77.79 Y49.598 E0.52583
G1 X77.8 Y50 E0.53142
G1 X77.8 Y70 E0.80982
G1 X77.76 Y70.789 E0.82082
G1 X77.641 Y71.569 E0.8318
G1 X77.443 Y72.334 E0.8428
G1 X77.169 Y73.074 E0.85378
G1 X76.821 Y73.783 E0.86478
G1 X76.403 Y74.454 E0.87578
G1 X75.92 Y75.078 E0.88677
G1 X75.377 Y75.651 E0.89775
G1 X74.778 Y76.166 E0.90875
G1 X74.13 Y76.617 E0.91974
G1 X73.439 Y77.001 E0.93074
G1 X72.714 Y77.313 E0.94173
G1 X71.961 Y77.55 E0.95272
G1 X71.187 Y77.709 E0.96372
G1 X70.402 Y77.79 E0.9747
G1 X70 Y77.8 E0.9803
G1 X50 Y77.8 E1.2587
G1 X49.211 Y77.76 E1.26969
G1 X48.431 Y77.641 E1.28068
G1 X47.666 Y77.443 E1.29168
G1 X46.926 Y77.169 E1.30266
G1 X46.217 Y76.821 E1.31365
G1 X45.546 Y76.403 E1.32466
G1 X44.922 Y75.92 E1.33564
G1 X44.349 Y75.377 E1.34663
G1 X43.834 Y74.778 E1.35763
G1 X43.383 Y74.13 E1.36862
G1 X42.999 Y73.439 E1.37962
G1 X42.687 Y72.714 E1.39061
G1 X42.45 Y71.961 E1.4016
G1 X42.291 Y71.187 E1.41259
G1 X42.21 Y70.402 E1.42358
G1 X42.2 Y70 E1.42918
G1 X42.2 Y50 E1.70757
G1 X42.24 Y49.211 E1.71857
G1 X42.359 Y48.431 E1.72955
G1 X42.557 Y47.666 E1.74055
G1 X42.831 Y46.926 E1.75154
G1 X43.179 Y46.217 E1.76253
G1 X43.597 Y45.546 E1.77353
G1 X44.08 Y44.922 E1.78452
G1 X44.623 Y44.349 E1.79551
G0 F3600 X45.016 Y44.53
G1 F1800 X45.611 Y44.042 E1.80622
G1 X46.253 Y43.619 E1.81692
G1 X46.936 Y43.264 E1.82764
G1 X47.651 Y42.983 E1.83833
G1 X48.393 Y42.777 E1.84905
G1 X49.151 Y42.649 E1.85975
G1 X50 Y42.6 E1.87159
G1 X70 Y42.6 E2.14998
G1 X70.768 Y42.64 E2.16069
G1 X71.528 Y42.759 E2.1714
G1 X72.271 Y42.957 E2.1821
G1 X72.99 Y43.231 E2.19281
G1 X73.676 Y43.578 E2.20351
G1 X74.323 Y43.994 E2.21422
G1 X74.923 Y44.475 E2.22492
G1 X75.47 Y45.016 E2.23563
G1 X75.958 Y45.611 E2.24634
G1 X76.381 Y46.253 E2.25704
G1 X76.736 Y46.936 E2.26776
G1 X77.017 Y47.651 E2.27845
G1 X77.223 Y48.393 E2.28917
G1 X77.351 Y49.151 E2.29987
G1 X77.4 Y50 E2.31171
G1 X77.4 Y70 E2.59011
G1 X77.36 Y70.768 E2.60081
G1 X77.241 Y71.528 E2.61152
G1 X77.043 Y72.271 E2.62222
G1 X76.769 Y72.99 E2.63293
G1 X76.422 Y73.676 E2.64363
G1 X76.006 Y74.323 E2.65434
G1 X75.525 Y74.923 E2.66505
G1 X74.984 Y75.47 E2.67576
G1 X74.389 Y75.958 E2.68647
G1 X73.747 Y76.381 E2.69717
G1 X73.064 Y76.736 E2.70788
G1 X72.349 Y77.017 E2.71858
G1 X71.607 Y77.223 E2.7293
G1 X70.849 Y77.351 E2.74
G1 X70 Y77.4 E2.75183
G1 X50 Y77.4 E3.03023
G1 X49.232 Y77.36 E3.04094
G1 X48.472 Y77.241 E3.05164
G1 X47.729 Y77.043 E3.06235
G1 X47.01 Y76.769 E3.07306
G1 X46.324 Y76.422 E3.08376
G1 X45.677 Y76.006 E3.09447
G1 X45.077 Y75.525 E3.10517
G1 X44.53 Y74.984 E3.11588
G1 X44.042 Y74.389 E3.12659
G1 X43.619 Y73.747 E3.13729
G1 X43.264 Y73.064 E3.14801
G1 X42.983 Y72.349 E3.1587
G1 X42.777 Y71.607 E3.16942
G1 X42.649 Y70.849 E3.18012
G1 X42.6 Y70 E3.19196
G1 X42.6 Y50 E3.47035
G1 X42.64 Y49.232 E3.48106
G1 X42.759 Y48.472 E3.49177
G1 X42.957 Y47.729 E3.50247
G1 X43.231 Y47.01 E3.51318
G1 X43.578 Y46.324 E3.52388
G1 X43.994 Y45.677 E3.53459
G1 X44.475 Y45.077 E3.54529
G1 X45.016 Y44.53 E3.556
G0 F3600 X45.408 Y44.716
G1 F1800 X45.998 Y44.257 E3.56641
G1 X46.634 Y43.862 E3.57683
G1 X47.308 Y43.538 E3.58724
G1 X48.013 Y43.288 E3.59765
G1 X48.741 Y43.114 E3.60807
G1 X49.483 Y43.019 E3.61848
G1 X50 Y43 E3.62568
G1 X70 Y43 E3.90408
G1 X70.747 Y43.04 E3.91449
G1 X71.485 Y43.159 E3.9249
G1 X72.207 Y43.357 E3.93532
G1 X72.903 Y43.63 E3.94573
G1 X73.566 Y43.977 E3.95614
G1 X74.189 Y44.392 E3.96656
G1 X74.763 Y44.871 E3.97697
G1 X75.284 Y45.408 E3.98739
G1 X75.743 Y45.998 E3.99779
G1 X76.138 Y46.634 E4.00821
G1 X76.462 Y47.308 E4.01862
G1 X76.712 Y48.013 E4.02903
G1 X76.886 Y48.741 E4.03945
G1 X76.981 Y49.483 E4.04987
G1 X77 Y50 E4.05707
G1 X77 Y70 E4.33546
G1 X76.96 Y70.747 E4.34588
G1 X76.841 Y71.485 E4.35628
G1 X76.643 Y72.207 E4.3667
G1 X76.37 Y72.903 E4.37711
G1 X76.023 Y73.566 E4.38753
G1 X75.608 Y74.189 E4.39795
G1 X75.129 Y74.763 E4.40835
G1 X74.592 Y75.284 E4.41877
G1 X74.002 Y75.743 E4.42917
G1 X73.366 Y76.138 E4.43959
G1 X72.692 Y76.462 E4.45
G1 X71.987 Y76.712 E4.46042
G1 X71.259 Y76.886 E4.47084
G1 X70.517 Y76.981 E4.48125
G1 X70 Y77 E4.48845
G1 X50 Y77 E4.76685
G1 X49.253 Y76.96 E4.77726
G1 X48.515 Y76.841 E4.78766
G1 X47.793 Y76.643 E4.79809
G1 X47.097 Y76.37 E4.80849
G1 X46.434 Y76.023 E4.81891
G1 X45.811 Y75.608 E4.82933
G1 X45.237 Y75.129 E4.83974
G1 X44.716 Y74.592 E4.85015
G1 X44.257 Y74.002 E4.86056
G1 X43.862 Y73.366 E4.87098
G1 X43.538 Y72.692 E4.88139
G1 X43.288 Y71.987 E4.8918
G1 X43.114 Y71.259 E4.90222
G1 X43.019 Y70.517 E4.91263
G1 X43 Y70 E4.91983
G1 X43 Y50 E5.19823
G1 X43.04 Y49.253 E5.20864
G1 X43.159 Y48.515 E5.21905
G1 X43.357 Y47.793 E5.22947
G1 X43.63 Y47.097 E5.23987
G1 X43.977 Y46.434 E5.25029
G1 X44.392 Y45.811 E5.26071
G1 X44.871 Y45.237 E5.27112
G1 X45.408 Y44.716 E5.28153
G0 F3600 X45.799 Y44.909
G1 F1800 X46.384 Y44.479 E5.29164
G1 X47.013 Y44.115 E5.30175
G1 X47.678 Y43.822 E5.31187
G1 X48.371 Y43.604 E5.32198
G1 X49.083 Y43.464 E5.33208
G1 X50 Y43.4 E5.34488
G1 X70 Y43.4 E5.62328
G1 X70.725 Y43.44 E5.63338
G1 X71.442 Y43.559 E5.6435
G1 X72.141 Y43.757 E5.65361
G1 X72.814 Y44.03 E5.66372
G1 X73.453 Y44.375 E5.67383
G1 X74.05 Y44.789 E5.68394
G1 X74.598 Y45.265 E5.69405
G1 X75.091 Y45.799 E5.70416
G1 X75.521 Y46.384 E5.71427
G1 X75.885 Y47.013 E5.72439
G1 X76.178 Y47.678 E5.7345
G1 X76.396 Y48.371 E5.74461
G1 X76.536 Y49.083 E5.75471
G1 X76.6 Y50 E5.76751
G1 X76.6 Y70 E6.04591
G1 X76.56 Y70.725 E6.05601
G1 X76.441 Y71.442 E6.06613
G1 X76.243 Y72.141 E6.07624
G1 X75.97 Y72.814 E6.08635
G1 X75.625 Y73.453 E6.09646
G1 X75.211 Y74.05 E6.10657
G1 X74.735 Y74.598 E6.11668
G1 X74.201 Y75.091 E6.12679
G1 X73.616 Y75.521 E6.1369
G1 X72.987 Y75.885 E6.14702
G1 X72.322 Y76.178 E6.15713
G1 X71.629 Y76.396 E6.16724
G1 X70.917 Y76.536 E6.17734
G1 X70 Y76.6 E6.19014
G1 X50 Y76.6 E6.46854
G1 X49.275 Y76.56 E6.47864
G1 X48.558 Y76.441 E6.48876
G1 X47.859 Y76.243 E6.49887
G1 X47.186 Y75.97 E6.50898
G1 X46.547 Y75.625 E6.51909
G1 X45.95 Y75.211 E6.5292
G1 X45.402 Y74.735 E6.53931
G1 X44.909 Y74.201 E6.54942
G1 X44.479 Y73.616 E6.55953
G1 X44.115 Y72.987 E6.56965
G1 X43.822 Y72.322 E6.57976
G1 X43.604 Y71.629 E6.58987
G1 X43.464 Y70.917 E6.59998
G1 X43.4 Y70 E6.61277
G1 X43.4 Y50 E6.89117
G1 X43.44 Y49.275 E6.90127
G1 X43.559 Y48.558 E6.91139
G1 X43.757 Y47.859 E6.9215
G1 X44.03 Y47.186 E6.93161
G1 X44.375 Y46.547 E6.94172
G1 X44.789 Y45.95 E6.95183
G1 X45.265 Y45.402 E6.96194
G1 X45.799 Y44.909 E6.97205
G0 F3600 X46.189 Y45.109
G1 F1800 X46.768 Y44.709 E6.98185
G1 X47.389 Y44.377 E6.99165
G1 X48.043 Y44.117 E7.00145
G1 X48.723 Y43.933 E7.01126
G1 X49.419 Y43.827 E7.02106
G1 X50 Y43.8 E7.02915
G1 X70 Y43.8 E7.30755
G1 X70.703 Y43.84 E7.31735
G1 X71.397 Y43.959 E7.32715
G1 X72.072 Y44.157 E7.33694
G1 X72.721 Y44.429 E7.34674
G1 X73.335 Y44.774 E7.35654
G1 X73.906 Y45.185 E7.36633
G1 X74.427 Y45.659 E7.37614
G1 X74.891 Y46.189 E7.38594
G1 X75.291 Y46.768 E7.39574
G1 X75.623 Y47.389 E7.40554
G1 X75.883 Y48.043 E7.41534
G1 X76.067 Y48.723 E7.42514
G1 X76.173 Y49.419 E7.43494
G1 X76.2 Y50 E7.44304
G1 X76.2 Y70 E7.72144
G1 X76.16 Y70.703 E7.73124
G1 X76.041 Y71.397 E7.74104
G1 X75.843 Y72.072 E7.75083
G1 X75.571 Y72.721 E7.76063
G1 X75.226 Y73.335 E7.77043
G1 X74.815 Y73.906 E7.78022
G1 X74.341 Y74.427 E7.79003
G1 X73.811 Y74.891 E7.79983
G1 X73.232 Y75.291 E7.80963
G1 X72.611 Y75.623 E7.81943
G1 X71.957 Y75.883 E7.82923
G1 X71.277 Y76.067 E7.83903
G1 X70.581 Y76.173 E7.84883
G1 X70 Y76.2 E7.85693
G1 X50 Y76.2 E8.13533
G1 X49.297 Y76.16 E8.14513
G1 X48.603 Y76.041 E8.15493
G1 X47.928 Y75.843 E8.16472
G1 X47.279 Y75.571 E8.17452
G1 X46.665 Y75.226 E8.18432
G1 X46.094 Y74.815 E8.19411
G1 X45.573 Y74.341 E8.20392
G1 X45.109 Y73.811 E8.21372
G1 X44.709 Y73.232 E8.22352
G1 X44.377 Y72.611 E8.23332
G1 X44.117 Y71.957 E8.24312
G1 X43.933 Y71.277 E8.25292
G1 X43.827 Y70.581 E8.26272
G1 X43.8 Y70 E8.27082
G1 X43.8 Y50 E8.54921
G1 X43.84 Y49.297 E8.55902
G1 X43.959 Y48.603 E8.56882
G1 X44.157 Y47.928 E8.57861
G1 X44.429 Y47.279 E8.5884
G1 X44.774 Y46.665 E8.59821
G1 X45.185 Y46.094 E8.608
G1 X45.659 Y45.573 E8.6178
G1 X46.189 Y45.109 E8.62761
G0 F3600 X46.578 Y45.317
G1 F1800 X47.15 Y44.948 E8.63709
G1 X47.762 Y44.649 E8.64657
G1 X48.404 Y44.424 E8.65604
G1 X49.069 Y44.275 E8.66552
G1 X50 Y44.2 E8.67852
G1 X70 Y44.2 E8.95692
G1 X70.68 Y44.24 E8.9664
G1 X71.35 Y44.359 E8.97587
G1 X72.002 Y44.556 E8.98535
G1 X72.626 Y44.828 E8.99483
G1 X73.214 Y45.172 E9.00431
G1 X73.758 Y45.582 E9.0138
G1 X74.249 Y46.053 E9.02327
G1 X74.683 Y46.578 E9.03275
G1 X75.052 Y47.15 E9.04222
G1 X75.351 Y47.762 E9.0517
G1 X75.576 Y48.404 E9.06117
G1 X75.725 Y49.069 E9.07066
G1 X75.8 Y50 E9.08366
G1 X75.8 Y70 E9.36206
G1 X75.76 Y70.68 E9.37154
G1 X75.641 Y71.35 E9.38101
G1 X75.444 Y72.002 E9.39049
G1 X75.172 Y72.626 E9.39997
G1 X74.828 Y73.214 E9.40945
G1 X74.418 Y73.758 E9.41893
G1 X73.947 Y74.249 E9.4284
G1 X73.422 Y74.683 E9.43788
G1 X72.85 Y75.052 E9.44736
G1 X72.238 Y75.351 E9.45684
G1 X71.596 Y75.576 E9.46631
G1 X70.931 Y75.725 E9.4758
G1 X70 Y75.8 E9.4888
G1 X50 Y75.8 E9.76719
G1 X49.32 Y75.76 E9.77668
G1 X48.65 Y75.641 E9.78615
G1 X47.998 Y75.444 E9.79563
G1 X47.374 Y75.172 E9.8051
G1 X46.786 Y74.828 E9.81459
G1 X46.242 Y74.418 E9.82407
G1 X45.751 Y73.947 E9.83354
G1 X45.317 Y73.422 E9.84302
G1 X44.948 Y72.85 E9.8525
G1 X44.649 Y72.238 E9.86198
G1 X44.424 Y71.596 E9.87145
G1 X44.275 Y70.931 E9.88093
G1 X44.2 Y70 E9.89394
G1 X44.2 Y50 E10.17233
G1 X44.24 Y49.32 E10.18181
G1 X44.359 Y48.65 E10.19129
G1 X44.556 Y47.998 E10.20077
G1 X44.828 Y47.374 E10.21024
G1 X45.172 Y46.786 E10.21972
G1 X45.582 Y46.242 E10.22921
G1 X46.053 Y45.751 E10.23868
G1 X46.578 Y45.317 E10.24816
G0 F3600 X46.965 Y45.534
G1 F1800 X47.529 Y45.198 E10.2573
G1 X48.131 Y44.934 E10.26645
G1 X48.76 Y44.744 E10.27559
G1 X49.407 Y44.633 E10.28473
G1 X50 Y44.6 E10.293
G1 X70 Y44.6 E10.5714
G1 X70.656 Y44.64 E10.58054
G1 X71.302 Y44.759 E10.58969
G1 X71.929 Y44.956 E10.59884
G1 X72.527 Y45.228 E10.60798
G1 X73.088 Y45.57 E10.61713
G1 X73.603 Y45.978 E10.62627
G1 X74.065 Y46.445 E10.63542
G1 X74.466 Y46.965 E10.64456
G1 X74.802 Y47.529 E10.65369
G1 X75.066 Y48.131 E10.66284
G1 X75.256 Y48.76 E10.67199
G1 X75.367 Y49.407 E10.68113
G1 X75.4 Y50 E10.6894
G1 X75.4 Y70 E10.96779
G1 X75.36 Y70.656 E10.97694
G1 X75.241 Y71.302 E10.98608
G1 X75.044 Y71.929 E10.99523
G1 X74.772 Y72.527 E11.00438
G1 X74.43 Y73.088 E11.01352
G1 X74.022 Y73.603 E11.02267
G1 X73.555 Y74.065 E11.03181
G1 X73.035 Y74.466 E11.04095
G1 X72.471 Y74.802 E11.05009
G1 X71.869 Y75.066 E11.05924
G1 X71.24 Y75.256 E11.06839
G1 X70.593 Y75.367 E11.07753
G1 X70 Y75.4 E11.08579
G1 X50 Y75.4 E11.36419
G1 X49.344 Y75.36 E11.37334
G1 X48.698 Y75.241 E11.38248
G1 X48.071 Y75.044 E11.39163
G1 X47.473 Y74.772 E11.40077
G1 X46.912 Y74.43 E11.40992
G1 X46.397 Y74.022 E11.41907
G1 X45.935 Y73.555 E11.42821
G1 X45.534 Y73.035 E11.43735
G1 X45.198 Y72.471 E11.44649
G1 X44.934 Y71.869 E11.45564
G1 X44.744 Y71.24 E11.46478
G1 X44.633 Y70.593 E11.47392
G1 X44.6 Y70 E11.48219
G1 X44.6 Y50 E11.76059
G1 X44.64 Y49.344 E11.76973
G1 X44.759 Y48.698 E11.77888
G1 X44.956 Y48.071 E11.78803
G1 X45.228 Y47.473 E11.79717
G1 X45.57 Y46.912 E11.80632
G1 X45.978 Y46.397 E11.81546
G1 X46.445 Y45.935 E11.82461
G1 X46.965 Y45.534 E11.83375
G0 F3600 X47.35 Y45.76
G1 F1800 X47.906 Y45.46 E11.84254
G1 X48.495 Y45.232 E11.85133
G1 X49.109 Y45.08 E11.86014
G1 X50 Y45 E11.87259
G1 X70 Y45 E12.15099
G1 X70.631 Y45.04 E12.15979
G1 X71.252 Y45.159 E12.16859
G1 X71.852 Y45.356 E12.17738
G1 X72.424 Y45.627 E12.18619
G1 X72.956 Y45.967 E12.19498
G1 X73.441 Y46.373 E12.20378
G1 X73.871 Y46.836 E12.21258
G1 X74.24 Y47.35 E12.22139
G1 X74.54 Y47.906 E12.23018
G1 X74.768 Y48.495 E12.23897
G1 X74.92 Y49.109 E12.24778
G1 X75 Y50 E12.26023
G1 X75 Y70 E12.53862
G1 X74.96 Y70.631 E12.54743
G1 X74.841 Y71.252 E12.55623
G1 X74.644 Y71.852 E12.56502
G1 X74.373 Y72.424 E12.57383
G1 X74.033 Y72.956 E12.58262
G1 X73.627 Y73.441 E12.59142
G1 X73.164 Y73.871 E12.60022
G1 X72.65 Y74.24 E12.60902
G1 X72.094 Y74.54 E12.61782
G1 X71.505 Y74.768 E12.62661
G1 X70.891 Y74.92 E12.63541
G1 X70 Y75 E12.64787
G1 X50 Y75 E12.92626
G1 X49.369 Y74.96 E12.93506
G1 X48.748 Y74.841 E12.94387
G1 X48.148 Y74.644 E12.95266
G1 X47.576 Y74.373 E12.96147
G1 X47.044 Y74.033 E12.97026
G1 X46.559 Y73.627 E12.97906
G1 X46.129 Y73.164 E12.98786
G1 X45.76 Y72.65 E12.99666
G1 X45.46 Y72.094 E13.00546
G1 X45.232 Y71.505 E13.01425
G1 X45.08 Y70.891 E13.02305
G1 X45 Y70 E13.03551
G1 X45 Y50 E13.3139
G1 X45.04 Y49.369 E13.3227
G1 X45.159 Y48.748 E13.3315
G1 X45.356 Y48.148 E13.3403
G1 X45.627 Y47.576 E13.34911
G1 X45.967 Y47.044 E13.35789
G1 X46.373 Y46.559 E13.3667
G1 X46.836 Y46.129 E13.37549
G1 X47.35 Y45.76 E13.3843
G0 F3600 X47.732 Y45.998
G1 F1800 X48.278 Y45.734 E13.39274
G1 X48.854 Y45.545 E13.40118
G1 X49.45 Y45.433 E13.40962
G1 X50 Y45.4 E13.41729
G1 X70 Y45.4 E13.69569
G1 X70.605 Y45.44 E13.70413
G1 X71.199 Y45.559 E13.71256
G1 X71.773 Y45.755 E13.72101
G1 X72.316 Y46.026 E13.72945
G1 X72.819 Y46.365 E13.7379
G1 X73.272 Y46.767 E13.74633
G1 X73.669 Y47.225 E13.75476
G1 X74.002 Y47.732 E13.76321
G1 X74.266 Y48.278 E13.77165
G1 X74.455 Y48.854 E13.78009
G1 X74.567 Y49.45 E13.78853
G1 X74.6 Y50 E13.7962
G1 X74.6 Y70 E14.07459
G1 X74.56 Y70.605 E14.08303
G1 X74.441 Y71.199 E14.09147
G1 X74.245 Y71.773 E14.09991
G1 X73.974 Y72.316 E14.10836
G1 X73.635 Y72.819 E14.1168
G1 X73.233 Y73.272 E14.12523
G1 X72.775 Y73.669 E14.13367
G1 X72.268 Y74.002 E14.14211
G1 X71.722 Y74.266 E14.15055
G1 X71.146 Y74.455 E14.15899
G1 X70.55 Y74.567 E14.16743
G1 X70 Y74.6 E14.1751
G1 X50 Y74.6 E14.4535
G1 X49.395 Y74.56 E14.46194
G1 X48.801 Y74.441 E14.47037
G1 X48.227 Y74.245 E14.47882
G1 X47.684 Y73.974 E14.48726
G1 X47.181 Y73.635 E14.49571
G1 X46.728 Y73.233 E14.50414
G1 X46.331 Y72.775 E14.51257
G1 X45.998 Y72.268 E14.52102
G1 X45.734 Y71.722 E14.52946
G1 X45.545 Y71.146 E14.5379
G1 X45.433 Y70.55 E14.54634
G1 X45.4 Y70 E14.55401
G1 X45.4 Y50 E14.83241
G1 X45.44 Y49.395 E14.84084
G1 X45.559 Y48.801 E14.84928
G1 X45.755 Y48.227 E14.85772
G1 X46.026 Y47.684 E14.86617
G1 X46.365 Y47.181 E14.87461
G1 X46.767 Y46.728 E14.88304
G1 X47.225 Y46.331 E14.89148
G1 X47.732 Y45.998 E14.89992
G0 F3600 X48.111 Y46.249
G1 F1800 X48.645 Y46.024 E14.90799
G1 X49.205 Y45.876 E14.91605
G1 X50 Y45.8 E14.92717
G1 X70 Y45.8 E15.20556
G1 X70.578 Y45.84 E15.21363
G1 X71.145 Y45.959 E15.22169
G1 X71.69 Y46.155 E15.22976
G1 X72.203 Y46.424 E15.23782
G1 X72.674 Y46.761 E15.24588
G1 X73.094 Y47.16 E15.25394
G1 X73.456 Y47.613 E15.26202
G1 X73.751 Y48.111 E15.27007
G1 X73.976 Y48.645 E15.27814
G1 X74.124 Y49.205 E15.2862
G1 X74.2 Y50 E15.29732
G1 X74.2 Y70 E15.57571
G1 X74.16 Y70.578 E15.58378
G1 X74.041 Y71.145 E15.59184
G1 X73.845 Y71.69 E15.59991
G1 X73.576 Y72.203 E15.60797
G1 X73.239 Y72.674 E15.61603
G1 X72.84 Y73.094 E15.62409
G1 X72.387 Y73.456 E15.63217
G1 X71.889 Y73.751 E15.64022
G1 X71.355 Y73.976 E15.64829
G1 X70.795 Y74.124 E15.65635
G1 X70 Y74.2 E15.66747
G1 X50 Y74.2 E15.94586
G1 X49.422 Y74.16 E15.95393
G1 X48.855 Y74.041 E15.96199
G1 X48.31 Y73.845 E15.97006
G1 X47.797 Y73.576 E15.97812
G1 X47.326 Y73.239 E15.98618
G1 X46.906 Y72.84 E15.99424
G1 X46.544 Y72.387 E16.00232
